X:1
T:Victimae paschali laudes
T:Victimae paschali laudes
T:Antoine Busnois (c.1430-1492)
T:2009 by Paul R Marchesano. May be freely copied for nonprofit use.
T:2009 by Paul R Marchesano. May be freely copied for nonprofit use.
T:2009 by Paul R Marchesano. May be freely copied for nonprofit use.
T:2009 by Paul R Marchesano. May be freely copied for nonprofit use.
T:2009 by Paul R Marchesano. May be freely copied for nonprofit use.
T:2009 by Paul R Marchesano. May be freely copied for nonprofit use.
T:2009 by Paul R Marchesano. May be freely copied for nonprofit use.
T:2009 by Paul R Marchesano. May be freely copied for nonprofit use.
T:2009 by Paul R Marchesano. May be freely copied for nonprofit use.
T:2009 by Paul R Marchesano. May be freely copied for nonprofit use.
T:2009 by Paul R Marchesano. May be freely copied for nonprofit use.
T:2009 by Paul R Marchesano. May be freely copied for nonprofit use.
T:2009 by Paul R Marchesano. May be freely copied for nonprofit use.
T:2009 by Paul R Marchesano. May be freely copied for nonprofit use.
T:2009 by Paul R Marchesano. May be freely copied for nonprofit use.
T:2009 by Paul R Marchesano. May be freely copied for nonprofit use.
C:Antoine Busnois
C:(c.1430-1492)
Z:2009 by Paul R Marchesano. May be freely copied for nonprofit use.
%%score [ 1 ( 2 3 ) 4 ( 5 6 ) ]
L:1/8
Q:1/4=120
M:3/2
K:Ab
V:1 treble nm="Soprano" snm="S"
V:2 treble nm="Alto" snm="A"
V:3 treble 
V:4 treble-8 nm="Tenor" snm="T"
V:5 bass nm="Bass" snm="B"
V:6 bass 
V:1
 z12 | z12 | z12 | z12 | z12 | z12 | z12 | z12 | z12 | B8 c4 | d6 cB A3 G | A2 B4 c2 B2 AG | %12
w: |||||||||1.Vi- cti-|mae _ _ pa- *|* scha- * * * *|
 F3 G A2 B4 =A2 | B4 z4 B4 | A6 B2 c4 | d8 c4 | d3 c A2 B3 A F2 | _G2 F4 B4 =A2 | B12 | z12 | %20
w: li _ _ lau- *|des im-|mo- * *||lent _ _ Chri- * *|sti- a- * *|ni||
 d8 c4 | A4 B8 | A4 z4 z4 | z12 | A6 B2 c2 e2 | d4 B2 B4 =A2 | B6 d4 c2 | d2 B3 A_GF =A4 | B12- | %29
w: 2a.A- gnus|re- de-|mit||Chri- * * *|* * stus *|in- * no-|* cens * * * Pa-|tri|
 B4 c6 B2 | G4 A4 B4 | c3 B G2 F2 A3 G | E4 z4 E4 | D2 E4 F2 _G4 | F3 E D2 B,2 C4 | B,6 B4 =A2 | %36
w: * re- con-|ci- * li-|a- * * * * *|vit pec-|* ca- * *|to- * * * *||
 B4 z4 B4 | A3 B c4 B4 | z2 e2 c2 d2 e2 c2 | d4 B4 c4 | d2 B3 A F2 A2 B2 | =G2 B2 c2 d3 c B2 | %42
w: res. 2b.Mors|et * vi- ta|du- * * * *|el- lo con-|* fli- * * xe- *|re mi- * ran- * *|
 A2 G2 A2 F2 G4 | A4 z4 z4 | z4 z4 c4 | d6 c2 d2 B2 | A4 z4 z4 | F6 G2 _A4 | B2 d3 c B2 c4 | %49
w: |do,|re-|gnat vi- * *|vus.|3a.Dic * no-|bis Ma- * * ri-|
 B4 z4 A4 | d8 c4 | B2 c3 B=AG A3 G | B4 _G2 F2 G2 B2 | A4 z4 z4 | A8 B4- | B2 A2 F3 =G A=GFE | %56
w: a, quid|vi- di-|sti in * * * vi- *|a? * * * *||Se- pul-|* crum Chri- * * * * *|
 D3 E F2 _G3 FED | C4 z4 z4 | z12 | G6 E2 F2 A2 | G2 B4 A2 F2 G2 | A2 B3 c d2 c2 e2 | %62
w: sti vi- * ven- * * *|tis,||et glo- * *|ri- am vi- * *|di re- * sur- * *|
 d2 c3 B B3 =AAG | B12- | B16 || z12 | z12 | z12 | z12 | z12 | z12 | z12 | z12 | F3 G A2 B4 AG | %74
w: * * * gen- * * *|tis:||||||||||3b.An- * * ge- * *|
 A3 B c2 d4 cB | d8 e4 | d4 c2 B2 c4 | B4 z4 A4 | d4 c2 c4 B2 | c2 d3 c B3 A/G/ A2- | %80
w: * * * li- * *|cos te-|* stes, _ _|_ su-|da- * ri- *|* * * um * * *|
 AB c3 B B3 =AAG | B4 A2 F2 _G4 | F4 z4 _G4 | F3 _G A2 B4 c2- | c2 d4 B4 =A2 | B6 _G2 A4 | =G8 z4 | %87
w: * * et * ve- * * *|stes. * * *|* Sur-|re- * xit Chri- *|* * * stus|spes no- *|stra:|
 =G4 A4 A4 | =G4 F2 E4 A2- | A=G G3 F D2 E4 | D2 _G4 F2 G2 B2 | A4 z2 c2 d2 B2 | d2 c3 B B4 =A2 | %93
w: præ- ce- det|su- * os in|* * Ga- li- læ- *||am. 4a.Cre- den- *|dum est * ma- gis|
 B3 F>ED C2 B,2 D2 | A, C>DE F>GA c>BG Bc | (3d3 c A2 (3B3 A F2 (3:2:2G2 =A4 | B4 z2 d2 c2 e2 | %97
w: so- * * * li Ma- *|* ri- * * * * * * * * ae *|ve- * * ra- * * * *|ci quam * *|
 d3 c/B/ c A2 d>cA B2 | A3 =G/F/ E2 z A2 B c2 | d2 Bd c>BA/G/ F B B2 =A | B6 A2 F4 | z4 z4 c4 | %102
w: Ju- * * * dae- * * * o-|rum * * * tur- * bae|* * * fal- * * * * * la- *|ci. * *|4b.Sci-|
 d4 c2 BA G4 | F4 E2 A3 B c2- | cd e2 A2 d4 c2 | d4 z4 z4 | z4 z4 c4 | d4 c2 B4 =A2 | %108
w: mus Chri- stum _ sur-|re- * xis- * se|* a mor- tu- is ve-|re:|Tu|no- bis, vi- ctor|
 B4 d4 c2 B2- | B2 A2 B2 =G2 =A4 ||[M:6/4] B2 d2 c2 B3 z3 | F2 D F>EC D2 B,2 A,2 | %112
w: Rex, mi- * se-||re- * * re.|Al- * le- * * lu- * *|
 B, F>ED C2 B, d>c B>=AA/G/ | B16 |] %114
w: ia, Al- * * * * le- * lu- * * *|ia.|
V:2
 z12 | z12 | z12 | z12 | z12 | z12 | z12 | z12 | z12 | B,8 A,4 | B,8 D4- | D4 E8 | D4 C2 B,2 C4 | %13
w: |||||||||1.Vi- cti-|mae pa-|* scha-|li lau- * *|
 B,8 z4 | F8 E4 | D4 E8 | D4 C2 B,2 D4 | E2 D2 B,4 C4 | B,8 z4 | F6 =G2 A4 | B6 A2 F4- | F4 E6 D2 | %22
w: des|im- mo-||lent _ _ Chri-|* sti- a- *|ni|2a.A- * *|gnus _ _|_ re- *|
 F6 _G3 F A2- | A_G B3 AGF E3 D | F8 z4 | F8 E4 | F8 E4 | D6 B,2 C4 | B,8 z4 | D4 E6 DC | %30
w: de- * * mit|_ _ o- * * * * *|ves:|Chri- stus|in- no-|cens * Pa-|tri|re- con- * *|
 B,2 C4 D4 B,2 | A,3 B, C2 D3 C A,2- | A,B, C3 B, G,2 =A,4 | B,4 z4 z4 | F6 B4 =A2 | B2 F8 E2 | %36
w: ci- li- * a-|vit * * pec- * ca-|* * to- * * *|res.|2b.Mors * et|vi- ta du-|
 F2 _G3 F F4 E2 | F4 z4 F4 | E4 F4 E4 | D3 C D2 E4 C2 | B,4 z4 D4 | E6 D2 B,4 | C2 C4 A,2 B,4 | %43
w: * * * el- *|lo con-|fli- xe- re|mi- * * ran- *|do, dux|vi- tae mor-|* tu- * *|
 A,4 B,4 C4 | D4 B,4 C4 | B,4 z4 z4 | F,6 G,2 _A,4 | B,2 D3 C B,2 C4 | B,4 z4 A,4 | D8 C4 | %50
w: us, * re-|* gnat vi-|vus.|3a.Dic * no-|bis Ma- * * ri-|a, quid|vi- di-|
 B,2 _G,2 F,2 B,4 =A,2 | B,2 E3 DCB, C3 B, | B,4 z4 D4 | F8 E4 | F8 D4 | E4 D2 B,2 C4 | B,8 B,4 | %57
w: sti * * in *|* vi- * * * * *|a? Se-|pul- crum|Chri- sti|vi- ven- * *|tis, et|
 E8 D4 | E4 F8 | E8 D4 | E6 C2 D2 B,2 | A,2 D3 E F3 E C2 | B,2 A,2 B,2 D2 C4 | B,12- | B,16 || %65
w: glo- ri-|am vi-|di re-|sur- gen- * *|||tis:||
 z12 | z12 | z12 | z12 | z12 | z12 | z12 | z12 | D8 E4 | F6 D2 E4 | D3 E F2 _G4 FE | %76
w: ||||||||3b.An- *|ge- * li-|cos _ _ te- * *|
 F3 G A2 B4 =AG | B4 G2 _A3 G F2- | F2 B,2 C2 E2 D3 C/B,/ | A,2 B,3 C D3 E F2- | FG A4 D2 C4 | %81
w: * * * stes, _ _|_ su- * * da-|* * * * ri- * *|* * * um _ _|_ _ _ et ve-|
 D4 F4 E4 | F4 E2 D4 C2 | D8 E3 D | C2 B,2 D4 C4 | B,8 z4 | B,4 E4 D4 | E4 F8 | E4 D2 E4 C2 | %89
w: Sur- re- xit|Chri- * * *|stus spes *|no- * * *|stra:|præ- ce- det|su- os|in * Ga- li-|
 (3:2:2B,4 C2 (3D4 CB, (3:2:2=A,4 G,2 | B,8 z4 | F4 A4 B4 | F4 F4 E4 | F4 F4 F4 | A6 F2 E4 | %95
w: læ- * * * * * *|am.|4a.Cre- den- dum|est ma- gis|so- li Ma-|ri- * ae|
 D8 C4 | B,8 _A,4 | D4 C2 F4 E2 | F4 z2 F4 E2 | D3 C/B,/ A,>B,C D2 B, C2 | B,4 z4 F4 | %101
w: ve- ra-|ci quam|Ju- dae- o- *|rum tur- *|bae * * fal- * * la- * *|ci. 4b.Sci-|
 _G2 F4 B2 =A3 =G | B2 F4 F4 E2 | F4 z4 z4 | E4 F2 G2 A4 | F2 B8 =A2 | B2 _G3 F =G2 AGFE | %107
w: * mus Chri- * *|stum sur- re- xis-|se|a mor- tu- is|ve- * *|re: Tu _ _ no- * * *|
 B,2 D2 E2 F4 E2 | F4 z2 F4 D2 | E2 F2 B,4 C4 ||[M:6/4] B,4 A,2 B,2 D2 C2 | B,3 z3 F2 D F>EC | %112
w: bis, _ vi- * ctor|Rex, mi- *|* * se- *|re- * * * *|re. Al- * le- * *|
 D2 B,2 A,2 B, F>ED C2 | B,16 |] %114
w: lu- * * ia, Al- * le- lu-|ia.|
V:3
 x12 | x12 | x12 | x12 | x12 | x12 | x12 | x12 | x12 | x12 | x12 | x12 | x12 | x12 | x12 | x12 | %16
w: ||||||||||||||||
 x12 | x12 | x12 | x12 | x12 | x12 | x12 | x12 | x12 | x12 | x12 | x12 | x12 | x12 | x12 | x12 | %32
w: ||||||||||||||||
 x12 | x12 | x12 | x12 | x12 | x12 | x12 | x12 | x12 | x12 | x12 | x12 | x12 | x12 | x12 | x12 | %48
w: ||||||||||||||||
 x12 | x12 | x12 | x12 | x12 | x12 | x12 | x12 | x12 | x12 | x12 | x12 | x12 | x12 | x12 | x12 | %64
w: ||||||||||||||||
 x16 || x12 | x12 | x12 | x12 | x12 | x12 | x12 | x12 | x12 | x12 | x12 | x12 | x12 | x12 | x12 | %80
w: ||||||||||||||||
 x12 | B,4 x8 | x12 | x12 | x12 | x12 | x12 | x12 | x12 | x12 | x12 | x12 | x12 | x12 | x12 | x12 | %96
w: |stes.|||||||||||||||
 x12 | x12 | x12 | x12 | x12 | x12 | x12 | x12 | x12 | x12 | x12 | x12 | x12 | x12 ||[M:6/4] x12 | %111
w: |||||||||||||||
 x12 | x12 | x16 |] %114
w: |||
V:4
 B8 c3 B | G2 F4 B2 A2 F2 | A2 B2 d2 c4 B2 | d4 z2 f4 e2 | _g2 f3 e d4 cB | A3 B c2 d4 c2 | %6
w: 1.Vi- cti- *|* mae pa- * *|* * * scha- *|li lau- *|* des _ _ _ _|im- * * mo- *|
 d2 B4 c3 B G2 | F3 GAG/A/ B3 ABA/B/ | c2 d4 B4 =A2 | B4 z4 z4 | z12 | z12 | z12 | z12 | z12 | %15
w: |lent _ _ _ _ Chri- * * * *|sti- a- * *|ni||||||
 z12 | z12 | z12 | z4 z4 f4 | d2 B2 d4 c4 | B8 z4 | z4 B8 | c6 d3 c e2- | ed f3 edc B3 A | %24
w: |||2a.A-||gnus|re-|de- * * mit|_ _ o- * * * * *|
 c2 d4 B4 =A2 | B2 F2 B2 d2 c4 | B4 z4 z4 | z4 z4 f4 | d4 e4 _g4 | f4 g2 a4 f2 | e4 z4 d4 | %31
w: ves: Chri- * *||stus|in-|no- * cens|Pa- * * *|tri re-|
 c3 d e2 A3 B c2- | cB G3 A B2 E4 | F2 B4 d4 c2 | d2 B3 A _G2 F4 | f4 z4 z4 | d4 c2 A2 B3 c | %37
w: con- * * ci- * li-|* * a- * vit pec-|* ca- * *|* to- * * res.|_|2b.Mors * * et *|
 d2 c4 A2 B4 | c6 B3 =G =A2 | B6 G2 A4 | B4 G2 A2 F2 E2 | =G4 z4 G4 | A2 e4 d2 e4 | c2 f4 g4 a2- | %44
w: * vi- * *|ta * * du-|el- * *||lo con-|fli- xe- re mi-|* ran- * do,|
 a2 f2 =g2 b4 =a2 | b2 f4 e2 d4 | c2 f4 e2 c4 | B4 z4 z4 | z12 | z12 | z12 | z4 z4 f4 | %52
w: * dux * vi- *|tae mor- tu- us,|re- * gnat vi-|vus.||||Se-|
 e2 d4 c4 B2 | c3 B c2 d2 B3 A | c2 d4 c2 B4 | =G2 A2 B4 A4 | F6 E2 _G4 | A2 c3 BA_G F2 G2- | %58
w: * pul- * *|crum * * * Chri- *|* sti * vi-|* * ven- *|tis, * et|* glo- * * * * ri-|
 GE A3 F B3 A=GF | =G2 c3 B G2 A4 | B4 z2 f2 d2 e2 | f4 B4 c4 | z2 e2 d2 f3 e c2 | d2 B2 F8 | %64
w: * * am * vi- * * *||di re- sur- *|gen- * tis:|re- * sur- * *|* * gen-|
 f16 || F3 G A2 B4 AG | A3 B c2 d4 cB | d8 e4 | d4 c2 B2 c4 | B4 z4 A4 | d4 c2 c4 B2 | %71
w: tis:|3b.An- * * ge- * *|* * * li- * *|cos te-|* stes, _ _|_ su-|da- * ri- *|
 c2 d3 c B3 A/G/ A2- | AB c3 B B3 =AAG | B4 z4 z4 | z12 | z12 | z12 | z12 | z12 | z12 | z12 | %81
w: * * * um _ _ _|_ _ et _ ve- * * *|stes.||||||||
 z4 z4 c4 | A2 d2 c2 A4 G2 | A6 _G2 B2 A2 | e2 d2 B4 z2 f2 | d2 e3 d B2 c2 d2 | e3 dcB B3 _AA=G | %87
w: Sur-|re- * * * *|xit Chri- * *|stus * * spes||* * * * no- * * *|
 B4 z4 d4 | B2 c2 A2 B2 c3 d | e2 B3 A F4 E2 | FB>A _G>FE F2 E e>dB | cdc f>Bd c2 B3 d- | %92
w: stra: præ-|ce- * det * su- *|os in * Ga- li-|* læ- * * * * am. * 4a.Cre- * *|den- * * dum * * est ma- *|
 dc/B/ A2 B2 d2 c3 B | B4 z4 z4 | z12 | z12 | f2 _g2 fd>e f2 e/d/ c2 | B3 A/G/ A F2 B>AF _G2 | %98
w: * * * * gis so- * *|li|||quam * * Ju- * * * * *|dae- * * * * * * * *|
 F A2 B c2 d2 c B>G=A | B2 z f a>gf f2 e f2 | d4 _g2 f4 d2 | e2 f2 B4 c4 | B4 z4 z4 | z4 z4 f4 | %104
w: * o- * rum tur- * * * *|bae fal- * * * la- * ci.|4b.Sci- mus Chri- stum|sur- re- xis- *|se|a|
 a4 f2 d2 e4 | d2 B4 d2 c4 | B8 A4 | d2 B2 c2 d2 c4 | B8 f4 | _g2 a2 d2 e2 f4 || %110
w: mor- * * tu-|* is _ ve-|re: Tu|no- bis, vi- * ctor|Rex, mi-|* * se- * re-|
[M:6/4] d3 z3 f2 d f>ec | d2 B2 A2 B f>ed c2 | B z z f2 cd>e f>_g f2- | f16 |] %114
w: re. Al- * le- * *|* * * ia, Al- * le- lu-|ia, Al- * le- * lu- * ia.||
V:5
 B,,8 A,,4 | B,,8 D,4- | D,4 E,8 | D,4 C,2 B,,2 C,4 | B,,8 z4 | F,8 E,4 | D,4 E,8 | %7
w: 1.Vi- cti-|mae pa-|* scha-|li lau- * *|des|im- mo-||
w: |||||||
 D,4 C,2 B,,2 D,4 | E,2 D,2 B,,4 C,4 | B,,4 z4 z4 | z12 | z12 | z12 | z12 | z12 | z12 | z12 | z12 | %18
w: lent _ _ Chri-|* sti- a- *|ni|||||||||
w: |||||||||||
 z4 z4 B,4 | [B,,B,]8 F,4 | _G,8 A,4 | F,4 _G,6 F,2 | F,3 _G, A,2 B,3 A, C2- | %23
w: 2a.A-|gnus _|_ _|* re- *|de- * * * * mit|
w: |||||
 CB, D3 CB,A, _G,3 F, | F,6 D,2 C,4 | B,,8 z4 | B,,2 D,3 E, F,2 _G,2 A,2 | B,2 _G,3 A, B,2 F,4 | %28
w: _ _ o- * * * * *|ves: Chri- *|stus|in- * * * * *|* no- * * cens|
w: |||||
 _G,6 E,6 | B,,4 z2 A,,2 C,2 D,2 | E,4 F,4 G,4 | A,3 G, E,2 F,3 E, C,2- | C,D, E,3 D, B,,2 C,4 | %33
w: Pa- *|tri re- * *|con- * *|ci- * * li- * *|* * a- * vit pec-|
w: |||||
 B,,2 _G,4 F,2 E,4 | D,4 z4 z4 | D4 B,4 C4 | B,4 A,2 F,2 _G,4 | F,4 E,2 C,2 D,4 | %38
w: * ca- * to-|res.|2b.Mors * et|vi- ta * du-|el- * * *|
w: |||||
 C,2 A,,4 B,,2 C,4 | B,,4 z4 z4 | B,,2 D,2 E,2 F,4 =G,2 | E,2 =G,2 A,2 B,3 A, =G,2 | %42
w: |lo|dux * * vi- *||
w: ||||
 F,2 E,2 F,4 E,4 | A,,2 D,4 E,4 F,2- | F,2 D,2 E,2 _G,2 F,4 | B,,2 D,4 E,2 F,2 G,2 | %46
w: * * tae *|mor- tu- * us,|* re- * * *|* gnat * * *|
w: ||||
 A,2 D,4 E,2 F,4 | B,,4 z4 z4 | z12 | z12 | z12 | z4 z4 F,4 | _G,2 B,4 A,2 G,4 | %53
w: * vi- * *|vus.||||Se-|* pul- * *|
w: |||||||
 F,3 _G, A,2 B,2 G,4 | F,2 D,3 E, F,2 B,,4 | z4 z4 A,,4 | B,,3 C, D,2 E,3 D,C,B,, | A,,8 B,,4 | %58
w: crum * * * Chri-|* sti * * *|vi-|ven- * tis, et * * *|glo- ri-|
w: |||||
 C,4 D,8 | E,4 z4 F,4 | E,2 G,4 A,2 B,2 G,2 | F,2 D,3 C, B,,2 A,,4 | B,,2 C,2 D,2 B,,2 F,4 | %63
w: am vi-|di re-|* sur- * * *|* gen- * * *||
w: |||||
 B,,12- | B,,16 || D,4 C,2 B,,2 D,2 E,2 | F,3 G, A,2 F,2 E,4 | D,4 z2 D4 C2 | %68
w: tis:||3b.An- ge- * * *|li- * * * *|cos te- *|
w: |||||
 D3 C/B,/ A,2 B,4 =A,2 | B, E,>F,G, A,D,>E, F,2 E,/D,/ C,2 | B,, B,>A,F, A,>G,E, F,>E,C, D,2 | %71
w: |stes, su- * * * * * * * * *|* da- * * * * * * * * ri-|
w: |||
 C,2 F,3 E, D,3 C,/B,,/ C,2- | C,D, E,3 B,, D,2 C,3 B,, | B,,4 z4 z4 | z12 | z12 | z12 | z12 | %78
w: * * * um * * *|* * et * * ve- *|stes.|||||
w: |||||||
 z12 | z12 | z12 | B,,4 D,4 C,4 | D,2 B,,2 C,2 D,2 E,4 | D,3 E, F,2 _G,4 A,2- | %84
w: |||Sur- * *|re- * * * xit|Chri- * stus spes *|
w: ||||||
 A,2 B,3 _G,>A,B, F,4 | _G,2 E,2 G,4 F,4 | E,8 F,4 | E,4 D,8 | E,4 F,2 =G,2 A,4 | E,4 B,,4 C,4 | %90
w: * no- * * stra: præ-|ce- * * *|det *|su- *|os in * *||
w: ||||||
 B,,2 E,4 D,2 E,2 _G,2 | F,8 B,,4 | z12 | B,,3 D,>E, F,>G, A, B, D2 C/B,/ | %94
w: Ga- li- læ- * *|am. *||Ma- * * * * * * ri- * *|
w: ||||
 C F,>E,C, D,>E,F, A,>G,E, G,A, | (3B,3 A, F,2 (3_G,3 F, D,2 (3:2:2E,2 F,4 | B,,8 z4 | z12 | %98
w: * * * * * * * * * * ae *|ve- * * ra- * * * *|ci||
w: ||||
 F,3 =G, A,2 B, F,>E,D, C,2 | z B,,D,>E, F,>G,A, B,2 _G, F,2 | _G,4 E,2 F,2 D,4 | %101
w: tur- * * * bae * * *|fal- * * * * * la- * ci.|4b.Sci- * * mus|
w: |||
 C,2 D,3 E, _G,2 F,4 | z2 B,2 A,2 B,2 C4 | A,2 B,2 =G,2 F,3 G, A,2- | A,B, C2 D2 B,2 A,4 | %105
w: Chri- * * * stum|sur- * * re-|* xis- * se * a|* * * mor- * tu-|
w: ||||
 [D,B,]2 _G,3 F, D,2 E,2 F,2 | _G,2 E,3 D,C,B,, C,4 | B,,4 z4 z4 | D6 CB, A,2 B,2 | %109
w: is ve- * re: Tu *|* no- bis, * * vi-|ctor|Rex, * * mi- se-|
w: ||||
 _G,2 F,2 G,4 F,4 ||[M:6/4] F2 D F>EC D2 B,2 A,2 | B,F>ED C2 B,4 z2 | B,,4 F,E,D,B,, D,>E, F,2 | %113
w: re- * re. *|Al- * le- * * lu- * *|ia, Al- * le- lu- ia,|Al- le- * * * lu- * *|
w: ||* * * * * ia,||
 B,,16 |] %114
w: ia.|
w: |
V:6
 x12 | x12 | x12 | x12 | x12 | x12 | x12 | x12 | x12 | x12 | x12 | x12 | x12 | x12 | x12 | x12 | %16
w: ||||||||||||||||
w: ||||||||||||||||
 x12 | x12 | x8 B,,4 | x12 | x12 | x12 | x12 | x12 | x12 | x12 | x12 | x12 | x12 | x12 | x12 | %31
w: |||||||||||||||
w: |||||||||||||||
 x12 | x12 | x12 | x12 | x12 | x12 | x12 | x12 | x12 | x12 | x12 | x12 | x12 | x12 | x12 | x12 | %47
w: ||||||||||||||||
w: ||||||||||||||||
 x12 | x12 | x12 | x12 | x12 | x12 | x12 | x12 | x12 | x12 | x12 | x12 | x12 | x12 | x12 | x12 | %63
w: ||||||||||||||||
w: ||||||||||||||||
 x12 | x16 || x12 | x12 | x12 | x12 | x12 | x12 | x12 | x12 | x12 | x12 | x12 | x12 | x12 | x12 | %79
w: ||||||||||||||||
w: ||||||||||||||||
 x12 | x12 | x12 | x12 | x12 | x12 | x12 | x12 | x12 | x12 | x12 | x12 | x12 | x12 | x12 | x12 | %95
w: ||||||||||||||||
w: ||||||||||||||||
 x12 | x12 | x12 | x12 | x12 | x12 | x12 | x12 | x12 | x12 | x12 | x12 | x12 | x12 | x12 || %110
w: |||||||||||||||
w: |||||||||||||||
[M:6/4] B,,4 F,2 B,,4 F,2 | B,,4 F,2 B,,4 x2 | x12 | x16 |] %114
w: ||||
w: Al- * le- *|lu- * *|||

